X: 21092
T: O PESCATOR
%R: reel, march
B: "Edinburgh Repository of Music" v.2 p.109 #2
F: http://digital.nls.uk/special-collections-of-printed-music/pageturner.cfm?id=87776133
Z: 2015 John Chambers <jc:trillian.mit.edu>
M: 2/4
L: 1/16
K: F
(c2 |\
f2)(f2g2)g2 | a2(ac') g2(ga) | f4 z2(c2 |\
f2)(f2g2)g2 | ~a2ac' ~g2ga | f4 z2 ||
|: c2 |\
b2b2b2d'2 | c'2ab Hc'3a | bagf gggb |\
agfe f2fg |[1 ac'bg f2 :|[2 ac' b/a/b/g/ f2 |]
